tools/download-figma-icons/icons/outlined-large/umbrella.svg

<svg width="65" height="64" viewBox="0 0 65 64" fill="none" xmlns="http://www.w3.org/2000/svg">
<path fill-rule="evenodd" clip-rule="evenodd" d="M46.4275 49.2852C48.9915 48.8362 51.7275 49.5932 53.7035 51.5702C54.8545 52.7212 55.6215 54.1532 55.9455 55.7122C59.2605 50.5582 61.0445 44.5612 61.0445 38.2882C61.0445 29.6582 57.6835 21.5452 51.5825 15.4432C45.4805 9.34116 37.3675 5.98116 28.7385 5.98116C22.4615 5.98116 16.4615 7.76716 11.3065 11.0852C12.8275 11.4012 14.2775 12.1432 15.4555 13.3222C17.4325 15.2992 18.1905 18.0342 17.7415 20.5982C20.3065 20.1492 23.0415 20.9072 25.0175 22.8842C26.9935 24.8602 27.7515 27.5942 27.3035 30.1572C27.7735 30.0752 28.2515 30.0262 28.7385 30.0262C30.9445 30.0262 33.0195 30.8852 34.5795 32.4462C34.586 32.4527 34.5917 32.4594 34.5975 32.4662C34.6032 32.4729 34.609 32.4797 34.6155 32.4862C34.6175 32.4882 34.6197 32.4894 34.622 32.4907C34.6242 32.4919 34.6265 32.4932 34.6285 32.4952C34.6355 32.5012 34.6375 32.5102 34.6425 32.5162C36.5695 34.4872 37.3085 37.1872 36.8655 39.7222C39.4295 39.2732 42.1655 40.0312 44.1415 42.0072C46.1185 43.9842 46.8765 46.7202 46.4275 49.2852ZM60.0585 9.08816L54.7375 14.4092C67.4545 28.2432 67.1145 49.8422 53.7035 63.2532C53.4115 63.5462 53.0265 63.6922 52.6425 63.6922C52.2595 63.6922 51.8755 63.5462 51.5825 63.2532C50.9965 62.6672 50.9965 61.7172 51.5825 61.1322C52.5765 60.1372 53.1225 58.8162 53.1225 57.4112C53.1225 56.0062 52.5765 54.6842 51.5825 53.6912C49.5315 51.6412 46.1935 51.6392 44.1415 53.6912C43.8485 53.9842 43.4645 54.1312 43.0805 54.1312C42.6975 54.1312 42.3135 53.9842 42.0205 53.6912C41.4345 53.1052 41.4345 52.1562 42.0205 51.5702C43.0145 50.5762 43.5615 49.2552 43.5615 47.8492C43.5615 46.4442 43.0145 45.1232 42.0205 44.1292C41.0265 43.1342 39.7055 42.5882 38.2995 42.5882C36.8945 42.5882 35.5735 43.1342 34.5795 44.1292C34.2865 44.4222 33.9025 44.5682 33.5185 44.5682C33.1355 44.5682 32.7515 44.4222 32.4585 44.1292C31.8725 43.5432 31.8725 42.5932 32.4585 42.0072C34.1205 40.3442 34.4115 37.8472 33.3805 35.8652L13.6735 55.5712C12.1115 57.1332 10.0595 57.9142 8.00849 57.9142C5.95649 57.9142 3.90549 57.1332 2.34349 55.5712C-0.780512 52.4472 -0.780512 47.3652 2.34349 44.2412C2.92949 43.6552 3.87849 43.6552 4.46449 44.2412C5.05049 44.8272 5.05049 45.7762 4.46449 46.3622C2.51049 48.3162 2.51049 51.4962 4.46449 53.4502C6.41749 55.4032 9.59849 55.4032 11.5525 53.4502L31.2905 33.7122C30.5165 33.2782 29.6505 33.0262 28.7385 33.0262C27.3325 33.0262 26.0115 33.5732 25.0175 34.5672C24.7255 34.8602 24.3415 35.0072 23.9575 35.0072C23.5735 35.0072 23.1895 34.8602 22.8965 34.5672C22.3105 33.9822 22.3105 33.0322 22.8965 32.4462C24.9475 30.3952 24.9475 27.0562 22.8965 25.0052C21.9025 24.0112 20.5815 23.4642 19.1765 23.4642C17.7705 23.4642 16.4505 24.0112 15.4555 25.0052C15.1625 25.2982 14.7795 25.4452 14.3955 25.4452C14.0115 25.4452 13.6275 25.2982 13.3345 25.0052C12.7485 24.4202 12.7485 23.4692 13.3345 22.8842C14.3285 21.8902 14.8755 20.5692 14.8755 19.1642C14.8755 17.7582 14.3285 16.4372 13.3345 15.4432C11.2825 13.3922 7.94549 13.3932 5.89349 15.4432C5.60049 15.7362 5.21749 15.8822 4.83349 15.8822C4.44949 15.8822 4.06549 15.7362 3.77249 15.4432C3.47949 15.1502 3.33349 14.7662 3.33349 14.3822C3.33349 13.9992 3.47949 13.6152 3.77249 13.3222C17.1825 -0.0888412 38.7825 -0.429842 52.6165 12.2882L57.9375 6.96716C58.5235 6.38116 59.4725 6.38116 60.0585 6.96716C60.6445 7.55216 60.6445 8.50316 60.0585 9.08816ZM36.9685 27.9361L47.0155 17.8891C47.6015 17.3031 48.5505 17.3031 49.1365 17.8891C49.7225 18.4741 49.7225 19.4251 49.1365 20.0101L39.0895 30.0571C38.7965 30.3501 38.4125 30.4971 38.0285 30.4971C37.6445 30.4971 37.2615 30.3501 36.9685 30.0571C36.3825 29.4721 36.3825 28.5221 36.9685 27.9361ZM43.2342 15.5751C43.7432 14.9211 43.6262 13.9791 42.9722 13.4701C42.8852 13.4031 34.2232 6.84106 23.8682 14.5261C23.2032 15.0191 23.0642 15.9591 23.5572 16.6241C23.8522 17.0211 24.3042 17.2301 24.7632 17.2301C25.0742 17.2301 25.3872 17.1341 25.6562 16.9351C34.1252 10.6511 40.8342 15.6121 41.1332 15.8411C41.7862 16.3461 42.7262 16.2281 43.2342 15.5751ZM51.4505 23.7916C52.1015 23.2816 53.0465 23.3996 53.5555 24.0536C53.6225 24.1396 60.1845 32.8016 52.4995 43.1576C52.2055 43.5536 51.7525 43.7636 51.2945 43.7636C50.9835 43.7636 50.6705 43.6676 50.4015 43.4676C49.7365 42.9746 49.5975 42.0346 50.0905 41.3696C56.4315 32.8246 51.2415 25.9646 51.1885 25.8966C50.6795 25.2426 50.7965 24.3006 51.4505 23.7916Z" fill="black"/>
</svg>

<svg xmlns="http://www.w3.org/2000/svg" width="65" height="64" fill="none" viewBox="0 0 65 64"><path fill="currentColor" fill-rule="evenodd" d="M46.428 49.285c2.564-.449 5.3.308 7.276 2.285a8.2 8.2 0 0 1 2.242 4.142c3.315-5.154 5.099-11.15 5.099-17.424 0-8.63-3.361-16.743-9.462-22.845-6.102-6.102-14.215-9.462-22.844-9.462-6.277 0-12.277 1.786-17.432 5.104a8.2 8.2 0 0 1 4.149 2.237 8.25 8.25 0 0 1 2.285 7.276 8.25 8.25 0 0 1 7.276 2.286 8.25 8.25 0 0 1 2.287 7.273 8.2 8.2 0 0 1 7.276 2.289l.017.02.018.02.007.005.007.004q.008.01.014.021a8.25 8.25 0 0 1 2.222 7.206 8.25 8.25 0 0 1 7.276 2.285 8.25 8.25 0 0 1 2.287 7.278m13.63-40.197-5.32 5.321c12.716 13.834 12.377 35.433-1.035 48.844a1.5 1.5 0 0 1-1.06.44 1.5 1.5 0 0 1-1.06-2.56 5.23 5.23 0 0 0 1.54-3.722 5.22 5.22 0 0 0-1.54-3.72 5.27 5.27 0 0 0-7.441 0 1.496 1.496 0 0 1-2.122 0 1.5 1.5 0 0 1 0-2.12 5.23 5.23 0 0 0 1.541-3.722 5.23 5.23 0 0 0-1.54-3.72 5.22 5.22 0 0 0-3.721-1.54 5.22 5.22 0 0 0-3.72 1.54 1.5 1.5 0 0 1-1.061.44 1.5 1.5 0 0 1-1.06-2.561c1.661-1.664 1.952-4.16.921-6.143L13.673 55.571a8 8 0 0 1-5.665 2.343 8 8 0 0 1-5.665-2.343c-3.124-3.124-3.124-8.206 0-11.33a1.5 1.5 0 1 1 2.121 2.121 5.02 5.02 0 0 0 0 7.088 5.02 5.02 0 0 0 7.089 0L31.29 33.712a5.2 5.2 0 0 0-2.552-.686 5.23 5.23 0 0 0-3.72 1.541 1.496 1.496 0 0 1-2.121 0 1.5 1.5 0 0 1 0-2.12 5.27 5.27 0 0 0 0-7.442 5.23 5.23 0 0 0-3.72-1.54 5.23 5.23 0 0 0-3.721 1.54 1.494 1.494 0 0 1-2.121 0 1.5 1.5 0 0 1 0-2.12 5.23 5.23 0 0 0 1.54-3.72 5.23 5.23 0 0 0-1.54-3.722 5.27 5.27 0 0 0-7.442 0 1.5 1.5 0 0 1-1.06.44 1.495 1.495 0 0 1-1.5-1.5c0-.384.146-.768.44-1.06C17.182-.09 38.782-.43 52.616 12.287l5.32-5.32a1.5 1.5 0 1 1 2.122 2.12m-23.09 18.848L47.017 17.89a1.5 1.5 0 1 1 2.12 2.121L39.09 30.057a1.496 1.496 0 0 1-2.12 0 1.5 1.5 0 0 1 0-2.12m6.266-12.36a1.5 1.5 0 0 0-.262-2.106c-.087-.067-8.749-6.629-19.104 1.056a1.5 1.5 0 0 0 1.788 2.41c8.47-6.285 15.178-1.324 15.477-1.095a1.5 1.5 0 0 0 2.101-.266m8.216 8.216a1.5 1.5 0 0 1 2.105.262c.068.086 6.63 8.748-1.056 19.104a1.5 1.5 0 0 1-2.098.31 1.5 1.5 0 0 1-.31-2.098c6.34-8.545 1.15-15.405 1.097-15.473a1.5 1.5 0 0 1 .262-2.105" clip-rule="evenodd"/></svg>
